markup/src/img/grid-img-05.svg

<svg width="85" height="85" viewBox="0 0 85 85" fill="none" xmlns="http://www.w3.org/2000/svg">
<g clip-path="url(#clip0_821_2574)">
<path d="M18.1641 14.7905H2.49998C1.11911 14.7905 0 13.6706 0 12.2905C0 10.9104 1.11911 9.79053 2.49998 9.79053H18.1641C19.545 9.79053 20.6641 10.9104 20.6641 12.2905C20.6641 13.6706 19.545 14.7905 18.1641 14.7905Z" fill="#40AC6C"/>
<path d="M27.1152 23.7409C20.8009 23.7409 15.6641 18.6041 15.6641 12.2903C15.6641 5.97517 20.8009 0.838379 27.1152 0.838379C33.4296 0.838379 38.5664 5.97517 38.5664 12.2903C38.5664 18.6043 33.4296 23.7409 27.1152 23.7409ZM27.1152 5.83852C23.5579 5.83852 20.664 8.73301 20.664 12.2903C20.664 15.8476 23.5579 18.7407 27.1152 18.7407C30.6725 18.7407 33.5664 15.8476 33.5664 12.2903C33.5664 8.73301 30.6725 5.83852 27.1152 5.83852Z" fill="#40AC6C"/>
<path d="M82.4999 14.7905H45.1352C43.7544 14.7905 42.6353 13.6706 42.6353 12.2905C42.6353 10.9104 43.7544 9.79053 45.1352 9.79053H82.4997C83.8806 9.79053 84.9997 10.9104 84.9997 12.2905C84.9997 13.6706 83.8808 14.7905 82.4999 14.7905Z" fill="#40AC6C"/>
<path d="M60.6816 53.9505C54.3671 53.9505 49.2305 48.8137 49.2305 42.4999C49.2305 36.1861 54.3673 31.0493 60.6816 31.0493C66.996 31.0493 72.1328 36.1861 72.1328 42.4999C72.1328 48.8137 66.9962 53.9505 60.6816 53.9505ZM60.6816 36.0495C57.1244 36.0495 54.2304 38.9426 54.2304 42.4999C54.2304 46.0572 57.1244 48.9504 60.6816 48.9504C64.2389 48.9504 67.1328 46.0572 67.1328 42.4999C67.1328 38.9426 64.2389 36.0495 60.6816 36.0495Z" fill="#40AC6C"/>
<path d="M42.6622 45H2.49998C1.11911 45 0 43.8801 0 42.5C0 41.1199 1.11911 40 2.49998 40H42.6622C44.043 40 45.1621 41.1199 45.1621 42.5C45.1621 43.8801 44.043 45 42.6622 45Z" fill="#40AC6C"/>
<path d="M82.5 45H69.6328C68.2519 45 67.1328 43.8801 67.1328 42.5C67.1328 41.1199 68.2519 40 69.6328 40H82.5C83.8809 40 85 41.1199 85 42.5C85 43.8801 83.8809 45 82.5 45Z" fill="#40AC6C"/>
<path d="M24.3183 84.1615C18.004 84.1615 12.8672 79.0247 12.8672 72.7096C12.8672 66.3958 18.004 61.259 24.3183 61.259C30.6327 61.259 35.7695 66.3958 35.7695 72.7096C35.7695 79.0247 30.6327 84.1615 24.3183 84.1615ZM24.3183 66.2592C20.7611 66.2592 17.8671 69.1524 17.8671 72.7096C17.8671 76.2669 20.7611 79.1614 24.3183 79.1614C27.8756 79.1614 30.7695 76.2669 30.7695 72.7096C30.7695 69.1524 27.8756 66.2592 24.3183 66.2592Z" fill="#40AC6C"/>
<path d="M82.5 75.2097H42.3379C40.957 75.2097 39.8379 74.0898 39.8379 72.7097C39.8379 71.3296 40.957 70.2097 42.3379 70.2097H82.5C83.8809 70.2097 85 71.3296 85 72.7097C85 74.0898 83.8809 75.2097 82.5 75.2097Z" fill="#40AC6C"/>
<path d="M15.3672 75.2099H2.49998C1.11911 75.2099 0 74.09 0 72.7097C0 71.3296 1.11911 70.2097 2.49998 70.2097H15.3672C16.7481 70.2097 17.8672 71.3296 17.8672 72.7097C17.8672 74.09 16.7481 75.2099 15.3672 75.2099Z" fill="#40AC6C"/>
</g>
<defs>
<clipPath id="clip0_821_2574">
<rect width="85" height="85" fill="white"/>
</clipPath>
</defs>
</svg>

<svg width="85" height="85" fill="none" xmlns="http://www.w3.org/2000/svg"><g clip-path="url(#clip0_821_2574)" fill="#40AC6C"><path d="M18.164 14.79H2.5a2.5 2.5 0 0 1 0-5h15.664a2.5 2.5 0 0 1 0 5z"/><path d="M27.115 23.74c-6.314 0-11.45-5.136-11.45-11.45C15.664 5.975 20.8.838 27.114.838c6.315 0 11.451 5.137 11.451 11.452 0 6.314-5.136 11.45-11.45 11.45zm0-17.901a6.459 6.459 0 0 0-6.451 6.451 6.458 6.458 0 0 0 6.451 6.45 6.458 6.458 0 0 0 6.451-6.45 6.459 6.459 0 0 0-6.45-6.451zM82.5 14.79H45.135a2.5 2.5 0 0 1 0-5H82.5a2.5 2.5 0 0 1 0 5zM60.682 53.95c-6.315 0-11.452-5.136-11.452-11.45 0-6.314 5.137-11.45 11.452-11.45 6.314 0 11.45 5.136 11.45 11.45 0 6.314-5.136 11.45-11.45 11.45zm0-17.9a6.458 6.458 0 0 0-6.452 6.45 6.458 6.458 0 0 0 6.452 6.45 6.458 6.458 0 0 0 6.45-6.45 6.458 6.458 0 0 0-6.45-6.45zM42.662 45H2.5a2.5 2.5 0 0 1 0-5h40.162a2.5 2.5 0 0 1 0 5z"/><path d="M82.5 45H69.633a2.5 2.5 0 0 1 0-5H82.5a2.5 2.5 0 0 1 0 5zM24.318 84.162c-6.314 0-11.45-5.137-11.45-11.452 0-6.314 5.136-11.451 11.45-11.451 6.315 0 11.451 5.137 11.451 11.45 0 6.316-5.136 11.453-11.45 11.453zm0-17.903a6.458 6.458 0 0 0-6.45 6.45 6.459 6.459 0 0 0 6.45 6.452 6.459 6.459 0 0 0 6.451-6.451 6.458 6.458 0 0 0-6.45-6.45zM82.5 75.21H42.338a2.5 2.5 0 0 1 0-5H82.5a2.5 2.5 0 0 1 0 5z"/><path d="M15.367 75.21H2.5a2.5 2.5 0 0 1 0-5h12.867a2.5 2.5 0 0 1 0 5z"/></g><defs><clipPath id="clip0_821_2574"><path fill="#fff" d="M0 0h85v85H0z"/></clipPath></defs></svg>
